X:23
T:Coronation Dance,The. RHu.023
S:R.Hughes MS,1823,Whitchurch,Shrops.
A:Whitchurch, Shropshire
Z:Neil Brookes 2006
M:6/8
L:1/8
Q:3/8=120
R:Jig
K:G
d|d2Bc2e|d>edB2G|c>de A>Bc|G>ABA2d|!
d2Bc2e|d>edB2G|c>ded2F|G3G2||!
d|d2gf2e|d>cB d>cB|A>BcG2B|A2AA2d|!
d2gf2e|d>cB d>cB|A>Bc F2A|G2GG3||

